X:10320
T:Marcus Hernon's
R:reel
S:Niall Keegan
H:
N:
D:Rare Live 'Pub' Album
Z:Adrian Scahill
M:4/4
L:1/8
K:G
EAGB A3G|EGDG EGDG|EAAG A2(3Bcd|egag gedB:||\
eagb a2ba|gede gedg|eaab a2ga|b2ga baag|\
eagb a2ba|gedB dega|b2ba gaag|(3efg dg egag||
